packages/foundations/assets/icons/functional/images/file/cloud_download_32.svg

<svg width="32" height="32" viewBox="0 0 32 32" fill="none" xmlns="http://www.w3.org/2000/svg">
<g clip-path="url(#clip0_185_876)">
<path fill-rule="evenodd" clip-rule="evenodd" d="M16 14.75C16.5128 14.75 16.9355 15.136 16.9933 15.6334L17 15.75V25.834L18.7929 24.0429C19.1534 23.6824 19.7206 23.6547 20.1129 23.9597L20.2071 24.0429C20.5676 24.4034 20.5953 24.9706 20.2903 25.3629L20.2071 25.4571L16.7071 28.9571C16.3466 29.3176 15.7794 29.3453 15.3871 29.0403L15.2929 28.9571L11.7929 25.4571C11.4024 25.0666 11.4024 24.4334 11.7929 24.0429C12.1534 23.6824 12.7206 23.6547 13.1129 23.9597L13.2071 24.0429L15 25.834V15.75C15 15.1977 15.4477 14.75 16 14.75ZM19.5 2.75C23.64 2.75 27 6.10786 27 10.25L26.9922 10.897C28.6755 11.9978 29.8102 13.7806 29.9782 15.7361L29.9946 15.9921L30 16.25C30 19.6913 27.1299 22.4921 23.4911 22.7336L23.2474 22.7459L21.9995 22.7459C21.4869 22.746 21.0645 22.3602 21.0067 21.8631L21 21.7465C21 21.1945 21.4475 20.7469 21.9995 20.7468L23.1956 20.7466C25.8139 20.6561 27.879 18.7631 27.9949 16.4547L28 16.25C28 14.6131 27.0163 13.1186 25.4421 12.3233C25.0462 12.1233 24.8294 11.6865 24.9094 11.2502C24.9695 10.9229 25 10.5887 25 10.25C25 7.21243 22.5376 4.75 19.5 4.75C17.435 4.75 15.5739 5.89743 14.6284 7.69289C14.3827 8.15956 13.8167 8.35513 13.3353 8.13976C12.7634 7.88395 12.1421 7.75 11.5 7.75C9.25701 7.75 7.36494 9.40159 7.04736 11.5987C7.00118 11.9182 6.80357 12.1958 6.51676 12.344C4.96541 13.1457 4 14.6282 4 16.25C4 18.6464 6.09846 20.6367 8.76967 20.7455L9 20.7501L10.0005 20.7496C10.5128 20.7493 10.9352 21.1347 10.9932 21.6314L11 21.7485C11 22.3007 10.5527 22.7484 10.0005 22.749L9 22.75C5.23436 22.75 2.13446 19.9819 2.00426 16.4794L2 16.25C2 14.1123 3.11799 12.1664 4.92072 10.9662L5.14031 10.8258L5.20889 10.6117C5.89862 7.95011 8.21877 5.98313 10.9963 5.76932L11.2579 5.75445L11.5 5.75C11.9933 5.75 12.4794 5.80516 12.9511 5.9128L13.3022 6.00333L13.4384 5.83119C14.7752 3.99878 17.1674 2.75 19.5 2.75Z" fill="#1A1C1F"/>
</g>
<defs>
<clipPath id="clip0_185_876">
<rect width="32" height="32" fill="white"/>
</clipPath>
</defs>
</svg>

<svg xmlns="http://www.w3.org/2000/svg" width="32" height="32" fill="none"><g clip-path="url(#a)"><path fill="#1A1C1F" fill-rule="evenodd" d="M16 14.75a1 1 0 0 1 .993.883l.007.117v10.084l1.793-1.791a1 1 0 0 1 1.32-.083l.094.083a1 1 0 0 1 .083 1.32l-.083.094-3.5 3.5a1 1 0 0 1-1.32.083l-.094-.083-3.5-3.5a1 1 0 0 1 1.32-1.497l.094.083L15 25.834V15.75a1 1 0 0 1 1-1m3.5-12c4.14 0 7.5 3.358 7.5 7.5l-.008.647c1.683 1.1 2.818 2.884 2.986 4.84l.017.255.005.258c0 3.441-2.87 6.242-6.509 6.484l-.244.012H22a1 1 0 0 1-.993-.883L21 21.747a1 1 0 0 1 1-1h1.196c2.618-.09 4.683-1.984 4.799-4.292L28 16.25c0-1.637-.984-3.131-2.558-3.927a1 1 0 0 1-.533-1.073q.09-.491.091-1a5.5 5.5 0 0 0-10.372-2.557 1 1 0 0 1-1.293.447 4.5 4.5 0 0 0-6.288 3.459 1 1 0 0 1-.53.745C4.965 13.146 4 14.628 4 16.25c0 2.396 2.098 4.387 4.77 4.496l.23.004h1a1 1 0 0 1 .993.881l.007.117a1 1 0 0 1-1 1.001l-1 .001c-3.766 0-6.866-2.768-6.996-6.27L2 16.25c0-2.138 1.118-4.084 2.92-5.284l.22-.14.069-.214a6.5 6.5 0 0 1 5.787-4.843l.262-.015.242-.004c.493 0 .98.055 1.451.163l.351.09.136-.172C14.775 4 17.168 2.75 19.5 2.75" clip-rule="evenodd"/></g><defs><clipPath id="a"><path fill="#fff" d="M0 0h32v32H0z"/></clipPath></defs></svg>
